X:425
T:Stoney Point
C:David Grisman from Manzanita album
N:Transcribed by Larry Tanner
R:bluegrass
L:1/8
Q:1/4=232
M:4/4
K:G
z6 DE |: "G "G2 g2 dg ed | B2 g2 dc BA | G2 g2 dg ed | "D"AB AG FD EF | "G "G2 g2 dg ed | 
B2 g2 dc BA | G2 g2 dg ea |1 f"D"g af "G "g2 DE :|2 f"D"g af "G "g2 A^A |: "Em"Be zB e2 eg | 
"D"fe df ed B2 | "Em"Be zB e2 eg | "D"fg af "G "g2 e2 | "Em"Be zB e2 eg | "D"fe df ed B2 | 
"G "GB AG (3"Em"EFE DE |1 DB, A,2 "G "G,2 A^A :|2 DB, A,2 "G "G,4 | 


